tn/diamond-outline.svg

<svg viewBox="0 0 15 15" fill="none" xmlns="http://www.w3.org/2000/svg" height="1em" width="1em">
  <path d="M7.5 14.5L7.10532 14.807C7.20005 14.9288 7.3457 15 7.5 15C7.6543 15 7.79995 14.9288 7.89468 14.807L7.5 14.5ZM0.5 5.5L0.0712535 5.24275C-0.0349854 5.41982 -0.0214495 5.64398 0.105324 5.80697L0.5 5.5ZM3.5 0.5V0H3.2169L3.07125 0.242752L3.5 0.5ZM11.5 0.5L11.9287 0.242752L11.7831 0H11.5V0.5ZM14.5 5.5L14.8947 5.80697C15.0214 5.64398 15.035 5.41982 14.9287 5.24275L14.5 5.5ZM7.89468 14.193L0.894676 5.19303L0.105324 5.80697L7.10532 14.807L7.89468 14.193ZM0.928746 5.75725L3.92875 0.757248L3.07125 0.242752L0.0712535 5.24275L0.928746 5.75725ZM3.5 1H11.5V0H3.5V1ZM11.0713 0.757248L14.0713 5.75725L14.9287 5.24275L11.9287 0.242752L11.0713 0.757248ZM14.1053 5.19303L7.10532 14.193L7.89468 14.807L14.8947 5.80697L14.1053 5.19303Z" fill="black"/>
</svg>

<svg viewBox="0 0 15 15" fill="none" xmlns="http://www.w3.org/2000/svg" height="1em" width="1em">
  <path d="m7.5 14.5-.395.307a.5.5 0 0 0 .79 0L7.5 14.5Zm-7-9-.429-.257a.5.5 0 0 0 .034.564L.5 5.5Zm3-5V0h-.283L3.07.243 3.5.5Zm8 0 .429-.257L11.783 0H11.5v.5Zm3 5 .395.307a.5.5 0 0 0 .034-.564L14.5 5.5Zm-6.605 8.693-7-9-.79.614 7 9 .79-.614ZM.929 5.757l3-5L3.07.243l-3 5 .858.514ZM3.5 1h8V0h-8v1Zm7.571-.243 3 5 .858-.514-3-5-.858.514Zm3.034 4.436-7 9 .79.614 7-9-.79-.614Z" fill="#000"/>
</svg>
